X: 23
T:Miss Campbell
% Nottingham Music Database
S:Lesley Dolman, via EF
M:4/4
L:1/4
K:G
P:A
[DF]|"G"[GB][GB] [B/2d/2][A/2c/2][G/2B/2][B/2d/2]|"G"[dg][dg] [d/2g/2][c/2e/2][B/2d/2][c/2e/2]|"G"[dg][gb] "C"[fa][eg]|"G"[d4g4]|"D7"[DF][DF] [F/2A/2][E/2G/2][D/2F/2][F/2A/2]|\
"D7"[Ac][Ac] [A/2c/2][G/2B/2][F/2A/2][G/2B/2]|"D7"[Ac][cd] [Ac][FA]|"G"[G3B3]:|
P:B
[dg]|"G"[d3/2g3/2][B/2d/2] [GB][GB]|"D7"[c3/2d3/2][A/2c/2] [FA][FA]|"G"[d3/2g3/2][B/2d/2] [GB][GB]|"A7"[A2^c2] -"D7"[A2c2]|"G"[d3/2g3/2][B/2d/2] [GB][GB]|\
"D7"[c3/2d3/2][A/2c/2] [FA][FA]|"Em"[GB][Be] "D7"[Ac][FA]|"G"[G3B3]:|


